flaticon/transport/truck-2.svg

<svg xmlns="http://www.w3.org/2000/svg" width="32" height="32" viewBox="0 0 24 24">
    <path d="M4.808594 17.410156C4.367188 17.410156 4.007812 17.769531 4.007812 18.210938 4.007812 18.652344 4.367188 19.011719 4.808594 19.011719 5.25 19.011719 5.609375 18.652344 5.609375 18.210938 5.609375 17.769531 5.25 17.410156 4.808594 17.410156zM19.230469 17.410156C18.789062 17.410156 18.429688 17.769531 18.429688 18.210938 18.429688 18.652344 18.789062 19.011719 19.230469 19.011719 19.671875 19.011719 20.03125 18.652344 20.03125 18.210938 20.03125 17.769531 19.671875 17.410156 19.230469 17.410156zM19.230469 17.410156"/>
    <path d="M 24 17.328125 L 24 11.519531 C 24 10.839844 23.4375 10.238281 22.714844 10.238281 L 21.035156 10.238281 L 20.992188 10.195312 L 20.671875 9.796875 L 18.347656 6.871094 C 17.988281 6.429688 17.507812 6.191406 16.945312 6.191406 L 12.820312 6.191406 L 12.820312 4.546875 C 12.820312 3.667969 12.140625 2.984375 11.296875 2.984375 L 1.5625 2.984375 C 0.679688 2.984375 0 3.667969 0 4.546875 L 0 17.410156 C 0 18.089844 0.519531 18.609375 1.203125 18.609375 L 2.03125 18.609375 C 2.222656 19.980469 3.382812 21.015625 4.808594 21.015625 C 6.234375 21.015625 7.390625 19.980469 7.582031 18.609375 L 16.453125 18.609375 C 16.644531 19.980469 17.804688 21.015625 19.230469 21.015625 C 20.65625 21.015625 21.816406 19.980469 22.007812 18.609375 L 22.757812 18.609375 C 23.4375 18.609375 24.039062 18.007812 24 17.328125 Z M 16.945312 6.992188 C 17.265625 6.992188 17.546875 7.113281 17.75 7.351562 L 19.070312 8.996094 L 15.503906 8.996094 C 15.34375 8.996094 15.222656 8.875 15.222656 8.714844 L 15.222656 6.992188 Z M 0.800781 10.195312 L 6.410156 10.195312 C 6.652344 10.195312 6.8125 10.035156 6.8125 9.796875 C 6.8125 9.554688 6.652344 9.394531 6.410156 9.394531 L 0.800781 9.394531 L 0.800781 8.195312 L 4.808594 8.195312 C 5.046875 8.195312 5.207031 8.035156 5.207031 7.792969 C 5.207031 7.554688 5.046875 7.394531 4.808594 7.394531 L 0.800781 7.394531 L 0.800781 4.546875 C 0.800781 4.109375 1.121094 3.785156 1.5625 3.785156 L 11.257812 3.785156 C 11.699219 3.785156 12.019531 4.148438 12.019531 4.546875 L 12.019531 13 L 0.800781 13 Z M 4.808594 20.214844 C 3.6875 20.214844 2.804688 19.332031 2.804688 18.210938 C 2.804688 17.089844 3.6875 16.207031 4.808594 16.207031 C 5.929688 16.207031 6.8125 17.089844 6.8125 18.210938 C 6.8125 19.332031 5.929688 20.214844 4.808594 20.214844 Z M 12.019531 17.808594 L 7.582031 17.808594 C 7.40625 16.527344 6.375 15.535156 5.070312 15.417969 C 5.0625 15.417969 5.050781 15.417969 5.042969 15.414062 C 5.007812 15.414062 4.976562 15.410156 4.941406 15.410156 C 4.898438 15.40625 4.851562 15.40625 4.808594 15.40625 C 4.761719 15.40625 4.71875 15.40625 4.671875 15.410156 C 4.640625 15.410156 4.605469 15.414062 4.574219 15.414062 C 4.5625 15.417969 4.554688 15.417969 4.542969 15.417969 C 3.242188 15.535156 2.210938 16.527344 2.03125 17.808594 L 1.203125 17.808594 C 0.960938 17.808594 0.800781 17.648438 0.800781 17.410156 L 0.800781 13.804688 L 12.019531 13.804688 Z M 19.230469 20.214844 C 18.109375 20.214844 17.226562 19.332031 17.226562 18.210938 C 17.226562 17.089844 18.109375 16.207031 19.230469 16.207031 C 20.351562 16.207031 21.234375 17.089844 21.234375 18.210938 C 21.234375 19.332031 20.351562 20.214844 19.230469 20.214844 Z M 22.714844 17.808594 L 22.007812 17.808594 C 21.828125 16.527344 20.796875 15.535156 19.492188 15.417969 C 19.484375 15.417969 19.472656 15.417969 19.464844 15.414062 C 19.433594 15.414062 19.398438 15.410156 19.367188 15.410156 C 19.320312 15.40625 19.277344 15.40625 19.230469 15.40625 C 19.183594 15.40625 19.140625 15.40625 19.09375 15.410156 C 19.0625 15.410156 19.027344 15.414062 18.996094 15.414062 C 18.988281 15.417969 18.976562 15.417969 18.96875 15.417969 C 17.664062 15.535156 16.632812 16.527344 16.453125 17.808594 L 12.820312 17.808594 L 12.820312 6.992188 L 14.421875 6.992188 L 14.421875 8.714844 C 14.421875 9.316406 14.902344 9.796875 15.503906 9.796875 L 19.632812 9.796875 L 20.351562 10.71875 C 20.511719 10.917969 20.753906 11.039062 21.035156 11.039062 L 22.714844 11.039062 C 22.957031 11.039062 23.195312 11.238281 23.195312 11.519531 L 23.195312 13 L 16.828125 13 C 16.585938 13 16.425781 13.160156 16.425781 13.402344 C 16.425781 13.644531 16.585938 13.804688 16.828125 13.804688 L 23.195312 13.804688 L 23.195312 17.289062 C 23.195312 17.570312 22.996094 17.808594 22.714844 17.808594 Z M 22.714844 17.808594"/>
</svg>

<svg xmlns="http://www.w3.org/2000/svg" width="32" height="32" viewBox="0 0 24 24">
    <path d="M4.809 17.41a.802.802 0 0 0 0 1.602.802.802 0 0 0 0-1.602zm0 0M19.23 17.41a.802.802 0 0 0 0 1.602.802.802 0 0 0 0-1.602zm0 0"/>
    <path d="M24 17.328V11.52c0-.68-.563-1.282-1.285-1.282h-1.68l-.043-.043-.32-.398-2.324-2.926c-.36-.441-.84-.68-1.403-.68H12.82V4.547c0-.879-.68-1.563-1.523-1.563H1.562A1.54 1.54 0 0 0 0 4.547V17.41c0 .68.52 1.2 1.203 1.2h.828a2.786 2.786 0 0 0 2.778 2.406 2.782 2.782 0 0 0 2.773-2.407h8.871a2.786 2.786 0 0 0 2.777 2.407 2.786 2.786 0 0 0 2.778-2.407h.75c.68 0 1.281-.601 1.242-1.28zM16.945 6.992c.32 0 .602.121.805.36l1.32 1.644h-3.566a.275.275 0 0 1-.281-.281V6.992zM.801 10.195h5.61c.241 0 .402-.16.402-.398 0-.242-.16-.402-.403-.402H.8v-1.2H4.81c.238 0 .398-.16.398-.402 0-.238-.16-.398-.398-.398H.8V4.547c0-.438.32-.762.761-.762h9.696c.441 0 .762.363.762.762V13H.8zm4.008 10.02a1.986 1.986 0 0 1-2.004-2.004c0-1.121.882-2.004 2.004-2.004 1.12 0 2.003.883 2.003 2.004a1.986 1.986 0 0 1-2.003 2.004zm7.21-2.406H7.583a2.776 2.776 0 0 0-2.512-2.391c-.008 0-.02 0-.027-.004-.035 0-.066-.004-.102-.004-.043-.004-.09-.004-.132-.004-.047 0-.09 0-.137.004-.031 0-.067.004-.098.004-.011.004-.02.004-.031.004a2.783 2.783 0 0 0-2.512 2.39h-.828c-.242 0-.402-.16-.402-.398v-3.605H12.02zm7.211 2.406a1.986 1.986 0 0 1-2.003-2.004c0-1.121.882-2.004 2.003-2.004 1.122 0 2.004.883 2.004 2.004a1.986 1.986 0 0 1-2.004 2.004zm3.485-2.406h-.707a2.783 2.783 0 0 0-2.516-2.391c-.008 0-.02 0-.027-.004-.031 0-.067-.004-.098-.004-.047-.004-.09-.004-.137-.004-.046 0-.09 0-.136.004-.032 0-.067.004-.098.004-.008.004-.02.004-.027.004a2.783 2.783 0 0 0-2.516 2.39H12.82V6.993h1.602v1.723c0 .601.48 1.082 1.082 1.082h4.129l.719.922c.16.199.402.32.683.32h1.68c.242 0 .48.2.48.48V13h-6.367c-.242 0-.402.16-.402.402 0 .243.16.403.402.403h6.367v3.484c0 .281-.199.52-.48.52zm0 0"/>
</svg>
